X:1
T:[ID 3-19a]
T:[ID 3-19a]
T:Bezeichnung standardisiert: Menuet Prinz Ferdinand; Printz Ferdinand Men: 12. In dieser Quelle auch als: Menuet Primo Printz Ferdinand In dieser Quelle auch als: Menuet
T:Urheber unbekannt Datum in der hier transkribierten schriftlichen Quelle: 1767
C:Urheber unbekannt
C:Datum in der hier transkribierten schriftlichen Quelle: 1767
%%score 1 2
L:1/8
M:3/4
K:D
V:1 treble nm="Primo"
V:2 treble nm="Secondo"
V:1
 a3 b a2 | a3 b a2 | a2 ac'd'b | a2 g2 f2 | b2 bc'd'b | a2 g2 f2 | A2 g2 f2 | f2 e4 :: e4 fa | %9
 a2 g2 f2 | a4 b=c' | =c'4 b2 | g2 bg e2 | f2 af d2 | eg f2 e2 | e2 d4 :| %16
V:2
 !fermata!f3 g f2 | f3 g f2 | f2 fabg | f2 e2 d2 | g2 gabg | f2 e2 d2 | c2 e2 c2 | d2 c4 :: c4 df | %9
 f2 e2 d2 | f4 ga | a4 g2 | e2 ge c2 | d2 fd F2 | GB A2 G2 | G2 F4 :| %16

